package/converter/svg/light/file-xmark.svg

<svg xmlns="http://www.w3.org/2000/svg" viewBox="0 0 384 512"><!-- Font Awesome Pro 6.0.0-alpha2 by @fontawesome - https://fontawesome.com License - https://fontawesome.com/license (Commercial License) --><path d="M365.258 125.254L258.746 18.746C246.742 6.742 230.465 0 213.492 0H64C28.656 0 0 28.654 0 64V448C0 483.346 28.656 512 64 512H320C355.348 512 384 483.346 384 448V170.51C384 153.535 377.258 137.258 365.258 125.254ZM224 34.076C228.477 35.643 232.664 37.922 236.117 41.375L342.625 147.879C346.078 151.332 348.359 155.523 349.922 160H240C231.188 160 224 152.828 224 144V34.076ZM352 448C352 465.645 337.645 480 320 480H64C46.355 480 32 465.645 32 448V64C32 46.355 46.355 32 64 32H192V144C192 170.469 213.531 192 240 192H352V448ZM139.312 260.688C133.062 254.438 122.937 254.438 116.688 260.688S110.438 277.063 116.688 283.312L169.375 336L116.688 388.688C110.438 394.938 110.438 405.063 116.688 411.312C122.93 417.559 133.055 417.566 139.312 411.312L192 358.625L244.688 411.312C250.93 417.559 261.055 417.566 267.312 411.312C273.562 405.062 273.562 394.937 267.312 388.688L214.625 336L267.312 283.312C273.562 277.062 273.562 266.937 267.312 260.688S250.937 254.438 244.688 260.688L192 313.375L139.312 260.688Z"/></svg>

<svg xmlns="http://www.w3.org/2000/svg" viewBox="0 0 384 512"><!--! Font Awesome Pro 6.6.0 by @fontawesome - https://fontawesome.com License - https://fontawesome.com/license (Commercial License) Copyright 2024 Fonticons, Inc. --><path d="M320 480L64 480c-17.7 0-32-14.3-32-32L32 64c0-17.7 14.3-32 32-32l128 0 0 112c0 26.5 21.5 48 48 48l112 0 0 256c0 17.7-14.3 32-32 32zM240 160c-8.8 0-16-7.2-16-16l0-111.5c2.8 .7 5.4 2.1 7.4 4.2L347.3 152.6c2.1 2.1 3.5 4.6 4.2 7.4L240 160zM64 0C28.7 0 0 28.7 0 64L0 448c0 35.3 28.7 64 64 64l256 0c35.3 0 64-28.7 64-64l0-284.1c0-12.7-5.1-24.9-14.1-33.9L254.1 14.1c-9-9-21.2-14.1-33.9-14.1L64 0zm52.7 260.7c-6.2 6.2-6.2 16.4 0 22.6L169.4 336l-52.7 52.7c-6.2 6.2-6.2 16.4 0 22.6s16.4 6.2 22.6 0L192 358.6l52.7 52.7c6.2 6.2 16.4 6.2 22.6 0s6.2-16.4 0-22.6L214.6 336l52.7-52.7c6.2-6.2 6.2-16.4 0-22.6s-16.4-6.2-22.6 0L192 313.4l-52.7-52.7c-6.2-6.2-16.4-6.2-22.6 0z"/></svg>
